assets/icons/24px/outline/document-video-24px.svg

<svg width="24" height="24" viewBox="0 0 24 24" fill="none" xmlns="http://www.w3.org/2000/svg">
<path d="M17.6759 6.30827L17.0069 7.05157L17.6759 6.30827ZM18.827 7.57705L19.7405 7.17021L18.827 7.57705ZM13.9491 3.13276L13.5908 4.06638L13.9491 3.13276ZM18.4142 20.4142L17.7071 19.7071L18.4142 20.4142ZM5.58579 20.4142L6.29289 19.7071L5.58579 20.4142ZM6 17V7H4V17H6ZM15 20H9V22H15V20ZM9 4H12.4651V2H9V4ZM18 9.28145V17H20V9.28145H18ZM14.472 4.77012L17.0069 7.05157L18.3448 5.56498L15.8099 3.28353L14.472 4.77012ZM20 9.28145C20 8.49248 20.0202 7.79821 19.7405 7.17021L17.9135 7.98389C17.9798 8.13278 18 8.31582 18 9.28145H20ZM17.0069 7.05157C17.7246 7.69754 17.8472 7.83499 17.9135 7.98389L19.7405 7.17021C19.4608 6.54221 18.9313 6.09277 18.3448 5.56498L17.0069 7.05157ZM12.4651 4C13.2988 4 13.4579 4.01538 13.5908 4.06638L14.3073 2.19914C13.7483 1.98462 13.1486 2 12.4651 2V4ZM15.8099 3.28353C15.3018 2.82623 14.8664 2.41366 14.3073 2.19914L13.5908 4.06638C13.7237 4.11738 13.8522 4.21234 14.472 4.77012L15.8099 3.28353ZM15 22C15.9145 22 16.701 22.0021 17.3278 21.9179C17.9833 21.8297 18.6117 21.631 19.1213 21.1213L17.7071 19.7071C17.631 19.7832 17.495 19.8774 17.0613 19.9357C16.5988 19.9979 15.9711 20 15 20V22ZM18 17C18 17.9711 17.9979 18.5988 17.9357 19.0613C17.8774 19.495 17.7832 19.631 17.7071 19.7071L19.1213 21.1213C19.631 20.6117 19.8297 19.9833 19.9179 19.3278C20.0021 18.701 20 17.9145 20 17H18ZM4 17C4 17.9145 3.99788 18.701 4.08214 19.3278C4.17027 19.9833 4.36902 20.6117 4.87868 21.1213L6.29289 19.7071C6.21677 19.631 6.12262 19.495 6.06431 19.0613C6.00212 18.5988 6 17.9711 6 17H4ZM9 20C8.02892 20 7.40121 19.9979 6.9387 19.9357C6.50496 19.8774 6.36902 19.7832 6.29289 19.7071L4.87868 21.1213C5.38834 21.631 6.01669 21.8297 6.67221 21.9179C7.29896 22.0021 8.08546 22 9 22V20ZM6 7C6 6.02892 6.00212 5.40121 6.06431 4.9387C6.12262 4.50496 6.21677 4.36902 6.29289 4.29289L4.87868 2.87868C4.36902 3.38834 4.17027 4.01669 4.08214 4.67221C3.99788 5.29896 4 6.08546 4 7H6ZM9 2C8.08546 2 7.29896 1.99788 6.67221 2.08214C6.01669 2.17027 5.38834 2.36902 4.87868 2.87868L6.29289 4.29289C6.36902 4.21677 6.50496 4.12262 6.9387 4.06431C7.40121 4.00212 8.02892 4 9 4V2Z" fill="white"/>
<path d="M13 3V5C13 6.88562 13 7.82843 13.5858 8.41421C14.1716 9 15.1144 9 17 9H19" stroke="white" stroke-width="2"/>
<path fill-rule="evenodd" clip-rule="evenodd" d="M14.5041 13.9069C14.4049 13.8381 14.2892 13.7609 14.1502 13.6682L11.1387 11.6605C10.983 11.5568 10.857 11.4732 10.7526 11.4063C10.7504 11.5302 10.75 11.6815 10.75 11.8686L10.75 15.382C10.75 15.5392 10.7501 15.6698 10.7522 15.783C10.8544 15.7343 10.9712 15.6759 11.1118 15.6056L14.1234 14.0998C14.2727 14.0252 14.3971 13.9629 14.5041 13.9069ZM10.7872 10.9735C10.7872 10.9736 10.787 10.9745 10.7863 10.9763C10.7869 10.9744 10.7872 10.9735 10.7872 10.9735ZM10.3761 11.1958C10.3743 11.1954 10.3734 11.1951 10.3734 11.195C10.3734 11.195 10.3743 11.1952 10.3761 11.1958ZM15.7845 13.0022C15.9982 13.1955 16.2838 13.5267 16.2534 14.0158C16.2229 14.5049 15.8984 14.7982 15.6624 14.9635C15.4425 15.1175 15.1422 15.2676 14.8366 15.4203C14.8225 15.4273 14.8083 15.4344 14.7942 15.4415L11.7826 16.9473C11.7689 16.9541 11.7551 16.961 11.7414 16.9679C11.4533 17.112 11.1667 17.2554 10.9211 17.3358C10.6533 17.4234 10.243 17.5016 9.84286 17.2543C9.4427 17.007 9.32919 16.6051 9.2878 16.3263C9.24984 16.0707 9.24992 15.7503 9.25001 15.4281C9.25002 15.4128 9.25002 15.3974 9.25002 15.382L9.25002 11.8686C9.25002 11.8522 9.25002 11.8359 9.25001 11.8195C9.24993 11.4511 9.24985 11.0948 9.29109 10.8159C9.33429 10.5237 9.45535 10.0756 9.9102 9.8322C10.365 9.58878 10.805 9.73658 11.0721 9.86272C11.3271 9.98315 11.6234 10.1808 11.93 10.3853C11.9435 10.3943 11.9571 10.4034 11.9707 10.4125L14.9823 12.4202C14.9954 12.4289 15.0086 12.4377 15.0218 12.4465C15.3061 12.6359 15.5854 12.822 15.7845 13.0022Z" fill="white"/>
</svg>

<svg width="24" height="24" fill="none" xmlns="http://www.w3.org/2000/svg"><path d="M17.676 6.308l-.67.744.67-.744zm1.151 1.269l.913-.407-.913.407zm-4.878-4.444l-.358.933.358-.933zm4.465 17.281l-.707-.707.707.707zm-12.828 0l.707-.707-.707.707zM6 17V7H4v10h2zm9 3H9v2h6v-2zM9 4h3.465V2H9v2zm9 5.281V17h2V9.281h-2zm-3.528-4.51l2.535 2.28 1.338-1.486-2.535-2.281-1.338 1.486zM20 9.28c0-.789.02-1.483-.26-2.11l-1.826.813c.066.149.086.332.086 1.297h2zm-2.993-2.23c.718.647.84.784.906.933l1.828-.814c-.28-.628-.81-1.077-1.396-1.605l-1.338 1.487zM12.465 4c.834 0 .993.015 1.126.066l.716-1.867C13.748 1.985 13.15 2 12.465 2v2zm3.345-.716c-.508-.458-.944-.87-1.503-1.085l-.716 1.867c.133.051.261.146.881.704l1.338-1.486zM15 22c.915 0 1.701.002 2.328-.082.655-.088 1.284-.287 1.793-.797l-1.414-1.414c-.076.076-.212.17-.646.229-.462.062-1.09.064-2.061.064v2zm3-5c0 .971-.002 1.599-.064 2.061-.059.434-.153.57-.229.646l1.414 1.414c.51-.51.709-1.138.797-1.793C20.002 18.7 20 17.915 20 17h-2zM4 17c0 .915-.002 1.701.082 2.328.088.655.287 1.284.797 1.793l1.414-1.414c-.076-.076-.17-.212-.229-.646C6.002 18.6 6 17.971 6 17H4zm5 3c-.971 0-1.599-.002-2.061-.064-.434-.059-.57-.153-.646-.229l-1.414 1.414c.51.51 1.138.709 1.793.797C7.3 22.002 8.085 22 9 22v-2zM6 7c0-.971.002-1.599.064-2.061.059-.434.153-.57.229-.646L4.879 2.879c-.51.51-.709 1.138-.797 1.793C3.998 5.3 4 6.085 4 7h2zm3-5c-.915 0-1.701-.002-2.328.082-.655.088-1.284.287-1.793.797l1.414 1.414c.076-.076.212-.17.646-.229C7.4 4.002 8.029 4 9 4V2z" fill="#fff"/><path d="M13 3v2c0 1.886 0 2.828.586 3.414C14.172 9 15.114 9 17 9h2" stroke="#fff" stroke-width="2"/><path d="M11.447 16.276l-.335-.67.335.67zm-1.21.34l-.394.638.394-.638zm4.222-1.845l.335.67-.335-.67zm1.046-.802l.748.047-.748-.047zm-4.366-2.308l3.011 2.007.832-1.248-3.011-2.008-.832 1.248zm2.984 2.439l-3.011 1.506.67 1.341 3.012-1.506-.67-1.341zm-3.373 1.282v-3.514h-1.5v3.514h1.5zm1.22-4.97c-.32-.214-.632-.424-.898-.55-.267-.125-.707-.273-1.162-.03l.708 1.323c-.19.102-.328-.003-.187.064.142.067.344.2.708.442l.832-1.249zm-1.22 1.456c0-.436.002-.678.025-.833.023-.154.034.018-.157.12L9.91 9.832c-.455.244-.576.692-.619.984-.043.291-.041.667-.041 1.052h1.5zm.362 3.738c-.165.082-.297.148-.412.201a2.337 2.337 0 0 1-.245.103c-.056.018-.053.01-.017.01.051 0 .124.016.193.058l-.788 1.276c.4.248.81.17 1.078.082.257-.084.56-.238.862-.389l-.671-1.341zm-1.862-.224c0 .338-.002.676.038.944.041.279.155.681.555.928l.788-1.276c.07.043.115.102.138.147.017.033.011.038.002-.019a2.33 2.33 0 0 1-.018-.266 18.58 18.58 0 0 1-.003-.458h-1.5zm4.9-1.714c.162.108.293.195.402.272.11.078.18.133.226.175.047.042.04.046.022.013a.386.386 0 0 1-.044-.205l1.497.093c.03-.49-.255-.82-.469-1.014-.208-.188-.504-.383-.802-.582l-.832 1.248zm.644 1.773c.32-.16.638-.316.868-.478.236-.165.56-.458.591-.947l-1.497-.093a.388.388 0 0 1 .07-.2c.021-.029.028-.025-.024.012-.05.035-.127.08-.246.145-.118.063-.259.133-.433.22l.671 1.341z" fill="#fff"/></svg>
